Newaita-dark/apps/24/blueman.svg

<svg height="24pt" viewBox="0 0 24 24" width="24pt" xmlns="http://www.w3.org/2000/svg" xmlns:xlink="http://www.w3.org/1999/xlink"><linearGradient id="a"><stop offset="0" stop-opacity=".313725"/><stop offset=".222222" stop-opacity=".27451"/><stop offset="1" stop-opacity="0"/></linearGradient><radialGradient id="b" cx="450.90894" cy="189.57936" gradientTransform="matrix(.00000013 -.0585994 -.105479 -.00000008 33.392364 47.696499)" gradientUnits="userSpaceOnUse" r="21.166656" xlink:href="#a"/><radialGradient id="c" cx="450.90894" cy="189.57936" gradientTransform="matrix(-.00000013 .0585994 .105479 .00000008 -9.57759 -5.645611)" gradientUnits="userSpaceOnUse" r="21.166656" xlink:href="#a"/><radialGradient id="d" cx="450.90894" cy="189.57936" gradientTransform="matrix(-.00000013 -.0585994 .105479 -.00000008 -9.57759 47.696499)" gradientUnits="userSpaceOnUse" r="21.166656" xlink:href="#a"/><radialGradient id="e" cx="450.90894" cy="189.57936" gradientTransform="matrix(.00000013 .0585994 -.105479 .00000008 33.392363 -5.645611)" gradientUnits="userSpaceOnUse" r="21.166656" xlink:href="#a"/><linearGradient id="f" gradientTransform="matrix(.01002 0 0 .0468795 9.349039 10.079088)" gradientUnits="userSpaceOnUse" x1="255.32306" x2="255.32304" y1="233.5" y2="254.66666"><stop offset="0" stop-opacity=".27451"/><stop offset="1" stop-opacity="0"/></linearGradient><linearGradient id="g" gradientUnits="userSpaceOnUse" x1="11.907393" x2="11.907393" y1="21.02545025" y2="2.17207784373"><stop offset="0" stop-color="#3f51b5"/><stop offset="1" stop-color="#5c6bc0"/></linearGradient><linearGradient id="h" gradientUnits="userSpaceOnUse" x1="10.91511009373" x2="10.91511009373" y1="2.17207831253" y2="21.02545025"><stop offset="0" stop-color="#e0e0e0"/><stop offset="1" stop-color="#bdbdbd"/></linearGradient><path d="m13.644531 21.027344h1.984375v-.996094h-1.984375zm0 0" fill="url(#b)"/><path d="m10.171875 21.027344h-1.984375v.992187h1.984375zm0 0" fill="url(#c)"/><path d="m10.171875 21.027344h-1.984375v-.996094h1.984375zm0 0" fill="url(#d)"/><path d="m13.644531 21.027344h1.984375v.992187h-1.984375zm0 0" fill="url(#e)"/><path d="m10.171875 20.777344h3.472656v1.242187h-3.472656zm0 0" fill="url(#f)"/><path d="m11.90625 2.171875c3.289062 0 5.953125 2.664063 5.953125 5.953125v6.945312c0 3.289063-2.664063 5.957032-5.953125 5.957032-3.285156 0-5.953125-2.667969-5.953125-5.957032v-6.945312c0-3.289062 2.667969-5.953125 5.953125-5.953125zm0 0" fill="url(#g)"/><path d="m11.90625 2.171875c-3.296875 0-5.953125 2.65625-5.953125 5.953125v.25c0-3.300781 2.65625-5.953125 5.953125-5.953125 3.300781 0 5.953125 2.652344 5.953125 5.953125v-.25c0-3.296875-2.652344-5.953125-5.953125-5.953125zm0 0" fill="#fff" fill-opacity=".392157"/><path d="m5.953125 14.910156v.160156c0 3.300782 2.65625 5.957032 5.953125 5.957032 3.300781 0 5.953125-2.65625 5.953125-5.957032v-.160156c0 3.296875-2.652344 5.953125-5.953125 5.953125-3.296875 0-5.953125-2.65625-5.953125-5.953125zm0 0" fill-opacity=".235294"/><path d="m11.90625 2.101562c-3.335938 0-6.023438 2.6875-6.023438 6.023438v6.945312c0 3.335938 2.6875 6.027344 6.023438 6.027344s6.023438-2.691406 6.023438-6.027344v-6.945312c0-3.335938-2.6875-6.023438-6.023438-6.023438zm0 .140626c3.261719 0 5.882812 2.621093 5.882812 5.882812v6.945312c0 3.261719-2.621093 5.886719-5.882812 5.886719-3.257812 0-5.882812-2.625-5.882812-5.886719v-6.945312c0-3.261719 2.625-5.882812 5.882812-5.882812zm0 0" fill="#212121"/><path d="m11.675781 5.390625c-.203125-.003906-.398437.074219-.539062.214844-.144531.140625-.226563.335937-.226563.535156v3.519531l-1.71875-1.589844c-.195312-.183593-.476562-.253906-.738281-.171874-.257813.078124-.453125.289062-.511719.554687s.03125.539063.234375.71875l2.628907 2.425781-2.628907 2.425782c-.203125.183593-.292969.457031-.234375.722656.058594.261718.253906.476562.511719.554687.261719.078125.542969.011719.738281-.175781l1.71875-1.585938v3.515626c0 .28125.15625.539062.40625.667968s.550782.105469.777344-.058594l3.472656-2.480468c.183594-.128906.300782-.335938.3125-.5625.015625-.222656-.074218-.441406-.238281-.597656l-2.628906-2.425782 2.628906-2.425781c.164063-.152344.253906-.371094.238281-.597656-.011718-.222657-.128906-.429688-.3125-.5625l-3.472656-2.480469c-.121094-.085938-.269531-.136719-.417969-.140625zm.734375 2.207031 1.539063 1.097656-1.539063 1.421876zm0 5.484375 1.539063 1.417969-1.539063 1.101562zm0 0" fill="url(#h)"/><path d="m11.675781 5.390625c-.203125-.003906-.398437.074219-.539062.214844-.144531.140625-.226563.335937-.226563.535156v.242187c0-.199218.082032-.390624.226563-.53125.140625-.140624.335937-.21875.539062-.214843.148438.003906.296875.050781.417969.136719l3.472656 2.484374c.164063.113282.273438.289063.304688.484376.046875-.28125-.070313-.5625-.304688-.730469l-3.472656-2.480469c-.121094-.085938-.269531-.136719-.417969-.140625zm-3.03125 2.472656c-.214843.011719-.414062.109375-.550781.277344s-.195312.382813-.160156.597656c.058594-.351562.355468-.617187.710937-.628906.203125-.007813.398438.066406.546875.207031l1.71875 1.585938v-.242188l-1.71875-1.589844c-.148437-.136718-.34375-.210937-.546875-.207031zm5.074219 1.046875-1.308594 1.207032v.242187l1.308594-1.207031.082031.058594.148438-.136719zm-3.121094 2.875-2.421875 2.238282c-.191406.171874-.28125.429687-.242187.683593.027344-.167969.113281-.324219.242187-.4375l2.421875-2.238281.074219.066406.132813-.121094zm2.617188 0-.203125.191406.132812.121094.070313-.066406 2.425781 2.238281c.121094.113281.203125.261719.230469.429688.039062-.25-.046875-.503907-.230469-.675781zm.503906 2.878906-1.308594.9375v.242188l1.308594-.933594.082031.074219.148438-.105469zm0 0" fill="#fff" fill-opacity=".901961"/><path d="m12.410156 7.597656v.460938l1.253906.898437.285157-.261719zm-4.449218 1.246094c-.089844.28125-.007813.59375.214843.792969l2.375 2.195312.253907-.234375-2.628907-2.425781c-.101562-.089844-.171875-.203125-.214843-.328125zm7.882812.011719c-.039062.121093-.109375.230469-.203125.316406l-2.628906 2.425781.25.234375 2.378906-2.195312c.214844-.199219.292969-.503907.203125-.78125zm-3.433594 4.226562v.460938l1.253906 1.160156.285157-.203125zm-1.5.457031-1.71875 1.585938c-.1875.179688-.453125.246094-.699218.183594-.25-.0625-.449219-.25-.53125-.492188-.105469.324219.023437.679688.316406.863282.289062.183593.664062.144531.914062-.089844l1.71875-1.589844zm4.933594 1.269532c-.050781.152344-.144531.28125-.277344.375l-3.472656 2.480468c-.226562.164063-.527344.1875-.777344.058594s-.40625-.386718-.40625-.667968v.464843c0 .28125.15625.539063.40625.664063.25.128906.550782.109375.777344-.054688l3.472656-2.480468c.265625-.191407.378906-.53125.277344-.839844zm0 0" fill-opacity=".235294"/><path d="m249.059549-100.010981c-4.332919-.083325-8.499188 1.583182-11.498902 4.582896-3.083038 2.999713-4.832871 7.165982-4.832871 11.415576v75.076164l-36.663166-33.913428c-4.166269-3.916293-10.165696-5.416149-15.748496-3.666316-5.499475 1.666507-9.665744 6.166077-10.915624 11.832203-1.249881 5.666126.666603 11.498902 4.999522 15.331869l56.077978 51.745059-56.077978 51.745058c-4.332919 3.916293-6.249403 9.749069-4.999522 15.415195 1.24988 5.5828 5.416149 10.165696 10.915624 11.832203 5.5828 1.666508 11.582227.249977 15.748496-3.749642l36.663166-33.830102v74.992838c0 5.999427 3.333015 11.498902 8.665839 14.24864 5.332824 2.749737 11.748878 2.249785 16.58175-1.249881l74.076259-52.911614c3.916293-2.749737 6.416054-7.165982 6.66603-11.998854.333302-4.749546-1.583182-9.415768-5.082848-12.748783l-56.077978-51.745058 56.077978-51.745059c3.499666-3.249689 5.41615-7.915911 5.082848-12.748782-.249976-4.749547-2.749737-9.165792-6.66603-11.998855l-74.076259-52.911613c-2.583087-1.833159-5.749451-2.916389-8.915816-2.999714zm15.665171 47.078838 32.830198 23.41443-32.830198 30.330437zm0 116.988828 32.830198 30.247111-32.830198 23.497756zm0 0" fill="none" stroke="#212121" stroke-linecap="round" stroke-linejoin="round" stroke-width="3" transform="matrix(.0468795 0 0 .0468795 0 10.079087)"/></svg>

<?xml version="1.0" encoding="UTF-8"?>
<svg xmlns="http://www.w3.org/2000/svg" xmlns:xlink="http://www.w3.org/1999/xlink" width="24pt" height="24pt" viewBox="0 0 24 24" version="1.1">
<defs>
<radialGradient id="radial0" gradientUnits="userSpaceOnUse" cx="450.90894" cy="189.57936" fx="450.90894" fy="189.57936" r="21.166656" gradientTransform="matrix(0.000000130628,-0.0585994,-0.105479,-0.0000000761539,33.392364,47.696499)">
<stop offset="0" style="stop-color:rgb(0%,0%,0%);stop-opacity:0.313725;"/>
<stop offset="0.222222" style="stop-color:rgb(0%,0%,0%);stop-opacity:0.27451;"/>
<stop offset="1" style="stop-color:rgb(0%,0%,0%);stop-opacity:0;"/>
</radialGradient>
<radialGradient id="radial1" gradientUnits="userSpaceOnUse" cx="450.90894" cy="189.57936" fx="450.90894" fy="189.57936" r="21.166656" gradientTransform="matrix(-0.000000130628,0.0585994,0.105479,0.0000000761539,-9.57759,-5.645611)">
<stop offset="0" style="stop-color:rgb(0%,0%,0%);stop-opacity:0.313725;"/>
<stop offset="0.222222" style="stop-color:rgb(0%,0%,0%);stop-opacity:0.27451;"/>
<stop offset="1" style="stop-color:rgb(0%,0%,0%);stop-opacity:0;"/>
</radialGradient>
<radialGradient id="radial2" gradientUnits="userSpaceOnUse" cx="450.90894" cy="189.57936" fx="450.90894" fy="189.57936" r="21.166656" gradientTransform="matrix(-0.000000130628,-0.0585994,0.105479,-0.0000000761539,-9.57759,47.696499)">
<stop offset="0" style="stop-color:rgb(0%,0%,0%);stop-opacity:0.313725;"/>
<stop offset="0.222222" style="stop-color:rgb(0%,0%,0%);stop-opacity:0.27451;"/>
<stop offset="1" style="stop-color:rgb(0%,0%,0%);stop-opacity:0;"/>
</radialGradient>
<radialGradient id="radial3" gradientUnits="userSpaceOnUse" cx="450.90894" cy="189.57936" fx="450.90894" fy="189.57936" r="21.166656" gradientTransform="matrix(0.000000130628,0.0585994,-0.105479,0.0000000761539,33.392363,-5.645611)">
<stop offset="0" style="stop-color:rgb(0%,0%,0%);stop-opacity:0.313725;"/>
<stop offset="0.222222" style="stop-color:rgb(0%,0%,0%);stop-opacity:0.27451;"/>
<stop offset="1" style="stop-color:rgb(0%,0%,0%);stop-opacity:0;"/>
</radialGradient>
<linearGradient id="linear0" gradientUnits="userSpaceOnUse" x1="255.32306" y1="233.5" x2="255.32304" y2="254.66666" gradientTransform="matrix(0.01002,0,0,0.0468795,9.349039,10.079088)">
<stop offset="0" style="stop-color:rgb(0%,0%,0%);stop-opacity:0.27451;"/>
<stop offset="1" style="stop-color:rgb(0%,0%,0%);stop-opacity:0;"/>
</linearGradient>
<linearGradient id="linear1" gradientUnits="userSpaceOnUse" x1="254" y1="233.5" x2="254" y2="-168.66667" gradientTransform="matrix(0.0468795,0,0,0.0468795,0,10.079087)">
<stop offset="0" style="stop-color:rgb(24.705882%,31.764706%,70.980392%);stop-opacity:1;"/>
<stop offset="1" style="stop-color:rgb(36.078431%,41.960784%,75.294118%);stop-opacity:1;"/>
</linearGradient>
<linearGradient id="linear2" gradientUnits="userSpaceOnUse" x1="232.83333" y1="-168.66666" x2="232.83333" y2="233.5" gradientTransform="matrix(0.0468795,0,0,0.0468795,0,10.079087)">
<stop offset="0" style="stop-color:rgb(87.843137%,87.843137%,87.843137%);stop-opacity:1;"/>
<stop offset="1" style="stop-color:rgb(74.117647%,74.117647%,74.117647%);stop-opacity:1;"/>
</linearGradient>
</defs>
<g id="surface1">
<path style=" stroke:none;fill-rule:nonzero;fill:url(#radial0);" d="M 13.644531 21.027344 L 15.628906 21.027344 L 15.628906 20.03125 L 13.644531 20.03125 Z M 13.644531 21.027344 "/>
<path style=" stroke:none;fill-rule:nonzero;fill:url(#radial1);" d="M 10.171875 21.027344 L 8.1875 21.027344 L 8.1875 22.019531 L 10.171875 22.019531 Z M 10.171875 21.027344 "/>
<path style=" stroke:none;fill-rule:nonzero;fill:url(#radial2);" d="M 10.171875 21.027344 L 8.1875 21.027344 L 8.1875 20.03125 L 10.171875 20.03125 Z M 10.171875 21.027344 "/>
<path style=" stroke:none;fill-rule:nonzero;fill:url(#radial3);" d="M 13.644531 21.027344 L 15.628906 21.027344 L 15.628906 22.019531 L 13.644531 22.019531 Z M 13.644531 21.027344 "/>
<path style=" stroke:none;fill-rule:nonzero;fill:url(#linear0);" d="M 10.171875 20.777344 L 13.644531 20.777344 L 13.644531 22.019531 L 10.171875 22.019531 Z M 10.171875 20.777344 "/>
<path style=" stroke:none;fill-rule:nonzero;fill:url(#linear1);" d="M 11.90625 2.171875 C 15.195312 2.171875 17.859375 4.835938 17.859375 8.125 L 17.859375 15.070312 C 17.859375 18.359375 15.195312 21.027344 11.90625 21.027344 C 8.621094 21.027344 5.953125 18.359375 5.953125 15.070312 L 5.953125 8.125 C 5.953125 4.835938 8.621094 2.171875 11.90625 2.171875 Z M 11.90625 2.171875 "/>
<path style=" stroke:none;fill-rule:nonzero;fill:rgb(100%,100%,100%);fill-opacity:0.392157;" d="M 11.90625 2.171875 C 8.609375 2.171875 5.953125 4.828125 5.953125 8.125 L 5.953125 8.375 C 5.953125 5.074219 8.609375 2.421875 11.90625 2.421875 C 15.207031 2.421875 17.859375 5.074219 17.859375 8.375 L 17.859375 8.125 C 17.859375 4.828125 15.207031 2.171875 11.90625 2.171875 Z M 11.90625 2.171875 "/>
<path style=" stroke:none;fill-rule:nonzero;fill:rgb(0%,0%,0%);fill-opacity:0.235294;" d="M 5.953125 14.910156 L 5.953125 15.070312 C 5.953125 18.371094 8.609375 21.027344 11.90625 21.027344 C 15.207031 21.027344 17.859375 18.371094 17.859375 15.070312 L 17.859375 14.910156 C 17.859375 18.207031 15.207031 20.863281 11.90625 20.863281 C 8.609375 20.863281 5.953125 18.207031 5.953125 14.910156 Z M 5.953125 14.910156 "/>
<path style=" stroke:none;fill-rule:nonzero;fill:rgb(12.941176%,12.941176%,12.941176%);fill-opacity:1;" d="M 11.90625 2.101562 C 8.570312 2.101562 5.882812 4.789062 5.882812 8.125 L 5.882812 15.070312 C 5.882812 18.40625 8.570312 21.097656 11.90625 21.097656 C 15.242188 21.097656 17.929688 18.40625 17.929688 15.070312 L 17.929688 8.125 C 17.929688 4.789062 15.242188 2.101562 11.90625 2.101562 Z M 11.90625 2.242188 C 15.167969 2.242188 17.789062 4.863281 17.789062 8.125 L 17.789062 15.070312 C 17.789062 18.332031 15.167969 20.957031 11.90625 20.957031 C 8.648438 20.957031 6.023438 18.332031 6.023438 15.070312 L 6.023438 8.125 C 6.023438 4.863281 8.648438 2.242188 11.90625 2.242188 Z M 11.90625 2.242188 "/>
<path style=" stroke:none;fill-rule:nonzero;fill:url(#linear2);" d="M 11.675781 5.390625 C 11.472656 5.386719 11.277344 5.464844 11.136719 5.605469 C 10.992188 5.746094 10.910156 5.941406 10.910156 6.140625 L 10.910156 9.660156 L 9.191406 8.070312 C 8.996094 7.886719 8.714844 7.816406 8.453125 7.898438 C 8.195312 7.976562 8 8.1875 7.941406 8.453125 C 7.882812 8.71875 7.972656 8.992188 8.175781 9.171875 L 10.804688 11.597656 L 8.175781 14.023438 C 7.972656 14.207031 7.882812 14.480469 7.941406 14.746094 C 8 15.007812 8.195312 15.222656 8.453125 15.300781 C 8.714844 15.378906 8.996094 15.3125 9.191406 15.125 L 10.910156 13.539062 L 10.910156 17.054688 C 10.910156 17.335938 11.066406 17.59375 11.316406 17.722656 C 11.566406 17.851562 11.867188 17.828125 12.09375 17.664062 L 15.566406 15.183594 C 15.75 15.054688 15.867188 14.847656 15.878906 14.621094 C 15.894531 14.398438 15.804688 14.179688 15.640625 14.023438 L 13.011719 11.597656 L 15.640625 9.171875 C 15.804688 9.019531 15.894531 8.800781 15.878906 8.574219 C 15.867188 8.351562 15.75 8.144531 15.566406 8.011719 L 12.09375 5.53125 C 11.972656 5.445312 11.824219 5.394531 11.675781 5.390625 Z M 12.410156 7.597656 L 13.949219 8.695312 L 12.410156 10.117188 Z M 12.410156 13.082031 L 13.949219 14.5 L 12.410156 15.601562 Z M 12.410156 13.082031 "/>
<path style=" stroke:none;fill-rule:nonzero;fill:rgb(100%,100%,100%);fill-opacity:0.901961;" d="M 11.675781 5.390625 C 11.472656 5.386719 11.277344 5.464844 11.136719 5.605469 C 10.992188 5.746094 10.910156 5.941406 10.910156 6.140625 L 10.910156 6.382812 C 10.910156 6.183594 10.992188 5.992188 11.136719 5.851562 C 11.277344 5.710938 11.472656 5.632812 11.675781 5.636719 C 11.824219 5.640625 11.972656 5.6875 12.09375 5.773438 L 15.566406 8.257812 C 15.730469 8.371094 15.839844 8.546875 15.871094 8.742188 C 15.917969 8.460938 15.800781 8.179688 15.566406 8.011719 L 12.09375 5.53125 C 11.972656 5.445312 11.824219 5.394531 11.675781 5.390625 Z M 8.644531 7.863281 C 8.429688 7.875 8.230469 7.972656 8.09375 8.140625 C 7.957031 8.308594 7.898438 8.523438 7.933594 8.738281 C 7.992188 8.386719 8.289062 8.121094 8.644531 8.109375 C 8.847656 8.101562 9.042969 8.175781 9.191406 8.316406 L 10.910156 9.902344 L 10.910156 9.660156 L 9.191406 8.070312 C 9.042969 7.933594 8.847656 7.859375 8.644531 7.863281 Z M 13.71875 8.910156 L 12.410156 10.117188 L 12.410156 10.359375 L 13.71875 9.152344 L 13.800781 9.210938 L 13.949219 9.074219 Z M 10.597656 11.785156 L 8.175781 14.023438 C 7.984375 14.195312 7.894531 14.453125 7.933594 14.707031 C 7.960938 14.539062 8.046875 14.382812 8.175781 14.269531 L 10.597656 12.03125 L 10.671875 12.097656 L 10.804688 11.976562 Z M 13.214844 11.785156 L 13.011719 11.976562 L 13.144531 12.097656 L 13.214844 12.03125 L 15.640625 14.269531 C 15.761719 14.382812 15.84375 14.53125 15.871094 14.699219 C 15.910156 14.449219 15.824219 14.195312 15.640625 14.023438 Z M 13.71875 14.664062 L 12.410156 15.601562 L 12.410156 15.84375 L 13.71875 14.910156 L 13.800781 14.984375 L 13.949219 14.878906 Z M 13.71875 14.664062 "/>
<path style=" stroke:none;fill-rule:nonzero;fill:rgb(0%,0%,0%);fill-opacity:0.235294;" d="M 12.410156 7.597656 L 12.410156 8.058594 L 13.664062 8.957031 L 13.949219 8.695312 Z M 7.960938 8.84375 C 7.871094 9.125 7.953125 9.4375 8.175781 9.636719 L 10.550781 11.832031 L 10.804688 11.597656 L 8.175781 9.171875 C 8.074219 9.082031 8.003906 8.96875 7.960938 8.84375 Z M 15.84375 8.855469 C 15.804688 8.976562 15.734375 9.085938 15.640625 9.171875 L 13.011719 11.597656 L 13.261719 11.832031 L 15.640625 9.636719 C 15.855469 9.4375 15.933594 9.132812 15.84375 8.855469 Z M 12.410156 13.082031 L 12.410156 13.542969 L 13.664062 14.703125 L 13.949219 14.5 Z M 10.910156 13.539062 L 9.191406 15.125 C 9.003906 15.304688 8.738281 15.371094 8.492188 15.308594 C 8.242188 15.246094 8.042969 15.058594 7.960938 14.816406 C 7.855469 15.140625 7.984375 15.496094 8.277344 15.679688 C 8.566406 15.863281 8.941406 15.824219 9.191406 15.589844 L 10.910156 14 Z M 15.84375 14.808594 C 15.792969 14.960938 15.699219 15.089844 15.566406 15.183594 L 12.09375 17.664062 C 11.867188 17.828125 11.566406 17.851562 11.316406 17.722656 C 11.066406 17.59375 10.910156 17.335938 10.910156 17.054688 L 10.910156 17.519531 C 10.910156 17.800781 11.066406 18.058594 11.316406 18.183594 C 11.566406 18.3125 11.867188 18.292969 12.09375 18.128906 L 15.566406 15.648438 C 15.832031 15.457031 15.945312 15.117188 15.84375 14.808594 Z M 15.84375 14.808594 "/>
<path style="fill:none;stroke-width:3;stroke-linecap:round;stroke-linejoin:round;stroke:rgb(12.941176%,12.941176%,12.941176%);stroke-opacity:1;stroke-miterlimit:4;" d="M 249.059549 -100.010981 C 244.72663 -100.094306 240.560361 -98.427799 237.560647 -95.428085 C 234.477609 -92.428372 232.727776 -88.262103 232.727776 -84.012509 L 232.727776 -8.936345 L 196.06461 -42.849773 C 191.898341 -46.766066 185.898914 -48.265922 180.316114 -46.516089 C 174.816639 -44.849582 170.65037 -40.350012 169.40049 -34.683886 C 168.150609 -29.01776 170.067093 -23.184984 174.400012 -19.352017 L 230.47799 32.393042 L 174.400012 84.1381 C 170.067093 88.054393 168.150609 93.887169 169.40049 99.553295 C 170.65037 105.136095 174.816639 109.718991 180.316114 111.385498 C 185.898914 113.052006 191.898341 111.635475 196.06461 107.635856 L 232.727776 73.805754 L 232.727776 148.798592 C 232.727776 154.798019 236.060791 160.297494 241.393615 163.047232 C 246.726439 165.796969 253.142493 165.297017 257.975365 161.797351 L 332.051624 108.885737 C 335.967917 106.136 338.467678 101.719755 338.717654 96.886883 C 339.050956 92.137337 337.134472 87.471115 333.634806 84.1381 L 277.556828 32.393042 L 333.634806 -19.352017 C 337.134472 -22.601706 339.050956 -27.267928 338.717654 -32.100799 C 338.467678 -36.850346 335.967917 -41.266591 332.051624 -44.099654 L 257.975365 -97.011267 C 255.392278 -98.844426 252.225914 -99.927656 249.059549 -100.010981 Z M 264.72472 -52.932143 L 297.554918 -29.517713 L 264.72472 0.812724 Z M 264.72472 64.056685 L 297.554918 94.303796 L 264.72472 117.801552 Z M 264.72472 64.056685 " transform="matrix(0.0468795,0,0,0.0468795,0,10.079087)"/>
</g>
</svg>
